X:316
T:Margaret's Fancy
R:Strathspey
C:Ian Powrie
Z: John Chambers <jc@trillian.mit.edu>
M:C
L:1/8
K:Bb
"F7" F |\
"Bb" d<f d>c B<d c>B | "Eb" G<B G>F "Cm" E2 G>E | "Bb" D<F F>G F>Bd>B |1"C7" c>B c<d "F" c3 :|2 "F7" c>B c<d "Bb" B3 ||
"D7"D |\
"Gm" G2 G>A      B<GB<d |      g>ag>d B<G "C7"  G>=E   | "F"  F2 F>G A>F A<c |      f>gf>c  "F7" A<F F>A |
"Bb" B>c d<B "F" A<cA<F | "Gm" G>A B>G    "D7" ^F<AF<D | "Eb" _E<G F>E "Bb" D<F B>d | "F7" c>B c<d "Bb" B3      |]
